icons/currency/currency-sterling.svg

<svg width="14" height="14" viewBox="0 0 14 14" fill="none"
    xmlns="http://www.w3.org/2000/svg">
    <path d="M7.87213 2.5C8.36246 2.50001 8.84665 2.61373 9.28522 2.83301L9.72369 3.05273C9.97062 3.17625 10.0708 3.47667 9.94733 3.72363C9.83929 3.9397 9.59575 4.0435 9.37115 3.9834L9.27643 3.94727L8.83795 3.72754C8.53824 3.57769 8.20721 3.50001 7.87213 3.5C7.67238 3.50003 7.46887 3.52873 7.27545 3.58398C5.89121 3.97966 5.1352 5.4916 5.66412 6.81445L5.71783 6.94824C6.19896 8.1511 5.98153 9.50896 5.17682 10.5H10.0001C10.2762 10.5 10.5001 10.7239 10.5001 11C10.5001 11.2761 10.2762 11.5 10.0001 11.5H4.00006C3.96701 11.5 3.93396 11.4967 3.90143 11.4902C3.85029 11.48 3.80306 11.4601 3.75885 11.4355C3.71896 11.4134 3.68041 11.3874 3.64655 11.3535C3.45128 11.1583 3.45128 10.8417 3.64655 10.6465L4.22565 10.0674C4.94611 9.34688 5.1675 8.26637 4.78912 7.32031L4.73639 7.18652C3.98155 5.29942 5.06124 3.17737 7.00104 2.62305C7.28244 2.54265 7.57806 2.50003 7.87213 2.5Z" fill="red"/>
    <path d="M4 7H8" stroke="green" stroke-linecap="round"/>
</svg>

<svg xmlns="http://www.w3.org/2000/svg" width="14" height="14" fill="none" viewBox="0 0 14 14"><path fill="red" d="M7.872 2.5c.49 0 .975.114 1.413.333l.439.22a.5.5 0 0 1-.353.93l-.095-.036-.438-.22a2.16 2.16 0 0 0-1.563-.143c-1.384.396-2.14 1.908-1.61 3.23l.053.134a3.55 3.55 0 0 1-.541 3.552H10a.5.5 0 0 1 0 1H4a.5.5 0 0 1-.353-.146.5.5 0 0 1 0-.707l.579-.58c.72-.72.942-1.8.563-2.747l-.053-.133c-.754-1.888.325-4.01 2.265-4.564.281-.08.577-.123.871-.123"/><path stroke="green" stroke-linecap="round" d="M4 7h4"/></svg>
